src/assets/outline/SmsStar.svg

<?xml version="1.0" encoding="UTF-8"?>
<svg width="24" height="24" viewBox="0 0 24 24" xmlns="http://www.w3.org/2000/svg">
 <path d="m17 21.25h-10c-3.65 0-5.75-2.1-5.75-5.75v-7c0-3.65 2.1-5.75 5.75-5.75h5c0.41 0 0.75 0.34 0.75 0.75s-0.34 0.75-0.75 0.75h-5c-2.86 0-4.25 1.39-4.25 4.25v7c0 2.86 1.39 4.25 4.25 4.25h10c2.86 0 4.25-1.39 4.25-4.25v-4c0-0.41 0.34-0.75 0.75-0.75s0.75 0.34 0.75 0.75v4c0 3.65-2.1 5.75-5.75 5.75z"/>
 <path d="m12 12.87c-0.84 0-1.69-0.26-2.34-0.79l-3.13-2.5c-0.32-0.26-0.38-0.73-0.12-1.05s0.72999-0.38 1.05-0.12l3.13 2.5c0.76 0.61 2.05 0.61 2.81 0 0.32-0.26 0.79-0.21 1.05 0.12 0.26 0.32 0.21 0.8-0.12 1.05-0.64 0.53-1.49 0.79-2.33 0.79z"/>
 <path d="m16.74 9.7502c-0.41 0-0.69-0.14001-0.87-0.27001-0.33-0.24-0.84-0.83998-0.54-2.16l0.05-0.21001c0.02-0.08-0.04-0.27-0.09-0.33l-0.35-0.35001c-0.59-0.6-0.82-1.3-0.62-1.93 0.2-0.62 0.79-1.06 1.62-1.2l0.38-0.06c0.07-0.02 0.21-0.12 0.25-0.19l0.28-0.57001c0.39-0.79 0.99-1.24 1.65-1.24s1.26 0.44999 1.65 1.24l0.28 0.57001c0.03 0.06 0.18 0.17 0.25 0.19l0.38 0.06c0.83 0.14 1.42 0.58 1.62 1.2s-0.02 1.32-0.62 1.93l-0.35 0.35001c-0.05 0.06-0.11 0.25-0.09 0.33l0.05 0.21001c0.3 1.32-0.21 1.92-0.54 2.16s-1.05 0.52998-2.2-0.15998l-0.25-0.15001c-0.07-0.04-0.27-0.04-0.34 0l-0.26 0.15001c-0.54 0.32-0.99 0.42999-1.34 0.42999zm1.75-7c-0.01 0.01-0.15 0.10999-0.29 0.39999l-0.28 0.57001c-0.24 0.49-0.81 0.91-1.34 1l-0.38 0.06c-0.32 0.05-0.43 0.16001-0.44 0.18001 0 0.02 0.03 0.17998 0.26 0.40998l0.35 0.35001c0.41 0.42 0.62 1.14 0.49 1.71l-0.05 0.21001c-0.08 0.36-0.05 0.54999-0.03 0.61999 0.02-0.02 0.2-0.03999 0.53-0.23999l0.26-0.15001c0.55-0.33 1.34-0.33 1.89 0l0.25 0.15001c0.33 0.2 0.5 0.22 0.56 0.22-0.01-0.03 0.03-0.21-0.06-0.6l-0.05-0.21001c-0.13-0.58 0.08-1.29 0.49-1.71l0.35-0.35001c0.23-0.23 0.26-0.38999 0.26-0.41999-0.01-0.02-0.12-0.12-0.44-0.18l-0.38-0.05999c-0.54-0.09-1.1-0.51-1.34-1l-0.28-0.56002c-0.16-0.3-0.29-0.38999-0.33-0.39999z"/>
</svg>

<svg width="24" height="24" viewBox="0 0 24 24"  xmlns="http://www.w3.org/2000/svg">
<path d="M17 21.25H7C3.35 21.25 1.25 19.15 1.25 15.5V8.5C1.25 4.85 3.35 2.75 7 2.75H12C12.41 2.75 12.75 3.09 12.75 3.5C12.75 3.91 12.41 4.25 12 4.25H7C4.14 4.25 2.75 5.64 2.75 8.5V15.5C2.75 18.36 4.14 19.75 7 19.75H17C19.86 19.75 21.25 18.36 21.25 15.5V11.5C21.25 11.09 21.59 10.75 22 10.75C22.41 10.75 22.75 11.09 22.75 11.5V15.5C22.75 19.15 20.65 21.25 17 21.25Z" />
<path d="M11.9998 12.8698C11.1598 12.8698 10.3098 12.6098 9.65978 12.0798L6.52978 9.57978C6.20978 9.31978 6.14978 8.84978 6.40978 8.52978C6.66978 8.20978 7.13977 8.14978 7.45977 8.40978L10.5898 10.9098C11.3498 11.5198 12.6398 11.5198 13.3998 10.9098C13.7198 10.6498 14.1898 10.6998 14.4498 11.0298C14.7098 11.3498 14.6598 11.8298 14.3298 12.0798C13.6898 12.6098 12.8398 12.8698 11.9998 12.8698Z" />
<path d="M16.7402 9.75023C16.3302 9.75023 16.0502 9.61022 15.8702 9.48022C15.5402 9.24022 15.0302 8.64024 15.3302 7.32024L15.3802 7.11023C15.4002 7.03023 15.3402 6.84023 15.2902 6.78023L14.9402 6.43022C14.3502 5.83022 14.1202 5.13023 14.3202 4.50023C14.5202 3.88023 15.1102 3.44023 15.9402 3.30023L16.3202 3.24023C16.3902 3.22023 16.5302 3.12023 16.5702 3.05023L16.8502 2.48022C17.2402 1.69022 17.8402 1.24023 18.5002 1.24023C19.1602 1.24023 19.7602 1.69022 20.1502 2.48022L20.4302 3.05023C20.4602 3.11023 20.6102 3.22023 20.6802 3.24023L21.0602 3.30023C21.8902 3.44023 22.4802 3.88023 22.6802 4.50023C22.8802 5.12023 22.6602 5.82022 22.0602 6.43022L21.7102 6.78023C21.6602 6.84023 21.6002 7.03023 21.6202 7.11023L21.6702 7.32024C21.9702 8.64024 21.4602 9.24022 21.1302 9.48022C20.8002 9.72022 20.0802 10.0102 18.9302 9.32024L18.6802 9.17023C18.6102 9.13023 18.4102 9.13023 18.3402 9.17023L18.0802 9.32024C17.5402 9.64024 17.0902 9.75023 16.7402 9.75023ZM18.4902 2.75023C18.4802 2.76023 18.3402 2.86022 18.2002 3.15022L17.9202 3.72023C17.6802 4.21023 17.1102 4.63023 16.5802 4.72023L16.2002 4.78023C15.8802 4.83023 15.7702 4.94024 15.7602 4.96024C15.7602 4.98024 15.7902 5.14022 16.0202 5.37022L16.3702 5.72023C16.7802 6.14023 16.9902 6.86022 16.8602 7.43022L16.8102 7.64023C16.7302 8.00023 16.7602 8.19022 16.7802 8.26022C16.8002 8.24022 16.9802 8.22023 17.3102 8.02023L17.5702 7.87022C18.1202 7.54022 18.9102 7.54022 19.4602 7.87022L19.7102 8.02023C20.0402 8.22023 20.2102 8.24023 20.2702 8.24023C20.2602 8.21023 20.3002 8.03023 20.2102 7.64023L20.1602 7.43022C20.0302 6.85022 20.2402 6.14023 20.6502 5.72023L21.0002 5.37022C21.2302 5.14022 21.2602 4.98023 21.2602 4.95023C21.2502 4.93023 21.1402 4.83023 20.8202 4.77023L20.4402 4.71024C19.9002 4.62024 19.3402 4.20024 19.1002 3.71024L18.8202 3.15022C18.6602 2.85022 18.5302 2.76023 18.4902 2.75023Z" />
</svg>
